src/normal/bat_50.svg

<!-- Generated by IcoMoon.io -->
<svg version="1.1" xmlns="http://www.w3.org/2000/svg" width="24" height="24" viewBox="0 0 24 24">
<title>battery-50</title>
<path d="M20.82 8c-0.412-1.164-1.523-2-2.826-2h-14.987c-1.653 0-2.997 1.346-2.997 3v7c0 1.654 1.344 3 2.997 3h14.987c1.303 0 2.414-0.836 2.826-2h2.17v-9h-2.17zM18.994 16c0 0.551-0.449 1-1 1h-14.987c-0.552 0-0.999-0.449-0.999-1v-7c0-0.551 0.447-1 0.999-1h14.987c0.551 0 1 0.449 1 1v7zM20.992 15h-1v-5h1v5zM7.003 9h2.998v7h-2.998zM3.007 11v3c0 1.1 0.674 2 1.499 2h1.498v-7h-1.498c-0.825 0-1.499 0.9-1.499 2z"></path>
</svg>

<svg xmlns="http://www.w3.org/2000/svg" width="24" height="24"><path d="M20.82 8a3.002 3.002 0 00-2.826-2H3.007A3.002 3.002 0 00.01 9v7c0 1.654 1.344 3 2.997 3h14.987a3.002 3.002 0 002.826-2h2.17V8h-2.17zm-1.826 8c0 .551-.449 1-1 1H3.007a1 1 0 01-.999-1V9a1 1 0 01.999-1h14.987c.551 0 1 .449 1 1v7zm1.998-1h-1v-5h1v5zM7.003 9h2.998v7H7.003zm-3.996 2v3c0 1.1.674 2 1.499 2h1.498V9H4.506c-.825 0-1.499.9-1.499 2z"/></svg>
